static/logos/whimsical-wordmark-color.svg

<svg width="100" height="17" viewBox="0 0 100 17" fill="none" xmlns="http://www.w3.org/2000/svg">
<g clip-path="url(#clip0_1_399)">
<path d="M7.99053 0.726185C8.32573 0.446855 8.77265 0.446854 9.10785 0.78205C9.88997 1.56417 10.728 2.40216 11.5101 3.18428L10.3369 4.41334L8.82852 2.90495C8.66092 2.73735 8.43746 2.73736 8.21399 2.84909C8.21399 2.84909 8.21399 2.84908 8.15813 2.90495C6.37042 4.63679 4.63857 6.42451 2.85086 8.21222C2.68327 8.37982 2.6274 8.65915 2.795 8.82674L2.85086 8.88261C4.52684 10.5586 6.20282 12.2346 7.8788 13.9105C7.99053 14.0781 8.15813 14.1899 8.32572 14.3016C8.49332 14.3575 8.71679 14.3016 8.82852 14.1899L10.281 12.7374L11.4542 13.9664L9.21958 16.201C9.05198 16.3686 8.88438 16.4804 8.71679 16.5921C8.38159 16.7038 8.0464 16.5921 7.82293 16.3686C5.47656 14.0223 3.07433 11.62 0.72796 9.27367C0.392763 8.93848 0.392763 8.37982 0.72796 8.04462C3.18606 5.53065 5.58829 3.12842 7.99053 0.726185Z" fill="#9187F6"/>
<path d="M13.91 0.726252C14.2452 0.391054 14.8039 0.391054 15.1391 0.726252L22.2341 7.82124C22.4575 8.0447 22.5693 8.37989 22.4575 8.71509C22.3458 8.93855 22.1782 9.10615 22.0106 9.27375L15.3626 15.9777C15.195 16.1453 15.0274 16.3129 14.8039 16.4246C14.4687 16.5363 14.1335 16.4246 13.91 16.2011L11.5078 13.8548L10.3346 12.6816L6.75921 9.10615C6.42401 8.77096 6.42401 8.2123 6.75921 7.93297L10.2788 4.4134L11.5078 3.18435C12.2899 2.34636 13.1279 1.56424 13.91 0.726252Z" fill="#8313DD"/>
<path d="M25.754 2.73747C26.0333 2.23468 26.7037 2.12295 27.1507 2.40228C27.2624 2.45814 27.3741 2.56987 27.43 2.68161C27.5417 2.8492 27.5976 3.07267 27.6535 3.29613L29.2736 9.83242C29.3294 10.1118 29.3853 10.3911 29.497 10.6704L31.5641 3.24026C31.6199 2.8492 31.8434 2.56987 32.1786 2.3464C32.5138 2.17881 32.9607 2.23468 33.2401 2.45814C33.4076 2.62574 33.5194 2.8492 33.6311 3.07267C34.3574 5.58661 35.0278 8.10058 35.8099 10.6145C36.4244 8.15644 37.0389 5.64248 37.5976 3.18439C37.6535 2.90506 37.7652 2.62574 37.9887 2.40228C38.4356 2.06708 39.106 2.12294 39.4412 2.56987C39.497 2.62573 39.497 2.68161 39.5529 2.73747C39.7205 3.07267 39.7205 3.51959 39.5529 3.85479C38.7149 7.03913 37.8211 10.2235 36.9831 13.4078C36.9272 13.7989 36.6479 14.19 36.2568 14.3576C35.9216 14.4693 35.5864 14.4134 35.2512 14.2458C35.0278 14.0224 34.8602 13.6872 34.7484 13.352C34.078 10.8939 33.3518 8.37991 32.6814 5.92181C31.9551 8.43577 31.2289 10.9497 30.5585 13.5196C30.4468 13.9106 30.2233 14.2458 29.8322 14.4134C29.497 14.5252 29.106 14.4693 28.8266 14.2458C28.6032 14.0224 28.4356 13.6872 28.3797 13.352C27.5417 10.1676 26.6479 6.98326 25.8099 3.79892C25.5864 3.51959 25.6423 3.12853 25.754 2.73747ZM40.8937 3.24026C40.8937 2.68161 41.2847 2.23468 41.8434 2.23468C42.4021 2.23468 42.849 2.62573 42.849 3.18439C42.849 4.35758 42.849 5.53077 42.849 6.64806C43.2959 6.0894 43.9104 5.75421 44.6367 5.64248C45.3071 5.53076 45.9775 5.64248 46.5361 5.97767C47.2624 6.36873 47.7652 7.03913 47.9328 7.82125C48.0445 8.43577 48.1004 9.0503 48.0445 9.66482C48.0445 10.9497 48.0445 12.2347 48.0445 13.4637C48.0445 14.0224 47.6535 14.4693 47.0948 14.4693C46.5361 14.4693 46.0892 14.0782 46.0892 13.5196C46.0892 12.0671 46.0892 10.5587 46.0892 9.10616C46.1451 8.43577 45.754 7.82125 45.1954 7.48605C44.5808 7.26259 43.9104 7.37432 43.4076 7.76538C43.0725 8.15644 42.9049 8.7151 42.9049 9.2179V13.4078C42.9049 13.6313 42.849 13.8548 42.7373 14.0224C42.4021 14.4693 41.7875 14.581 41.2847 14.2458C41.173 14.19 41.1171 14.0782 41.0613 14.0224C40.8937 13.743 40.8937 13.4078 40.8937 13.0726C40.8937 9.83242 40.8937 6.53633 40.8937 3.24026ZM50.2792 2.29054C50.8937 2.06707 51.5641 2.40228 51.7875 3.0168C51.8434 3.12853 51.8434 3.24026 51.8434 3.40786C51.8993 4.07825 51.3965 4.58105 50.7261 4.63691C50.6702 4.63691 50.6143 4.63691 50.6143 4.63691C49.944 4.63691 49.4412 4.07825 49.4412 3.40786C49.497 2.90506 49.7764 2.45814 50.2792 2.29054ZM76.0893 2.29054C76.7038 2.01121 77.4301 2.29054 77.7094 2.90506C77.7653 2.96093 77.7653 3.07266 77.7653 3.18439C77.877 3.79892 77.486 4.46931 76.8156 4.58104C76.7597 4.58104 76.7038 4.58104 76.648 4.58104C75.9776 4.63691 75.4189 4.07825 75.4189 3.46372C75.3631 2.96093 75.6424 2.514 76.0893 2.29054ZM96.7597 2.29054C97.1508 2.17881 97.5418 2.29054 97.8212 2.51401C98.0446 2.73747 98.1005 3.07267 98.1005 3.352V11.8436C98.1005 12.0671 98.1564 12.3464 98.324 12.514C98.6033 12.7374 98.9943 12.6257 99.3295 12.8492C99.7206 13.1844 99.7206 13.743 99.3854 14.1341C99.3295 14.19 99.2737 14.2458 99.2178 14.3017C98.324 14.581 97.3742 14.4134 96.648 13.7989C96.3128 13.2961 96.0893 12.6257 96.1452 12.0112C96.1452 9.2179 96.1452 6.4246 96.1452 3.57546C96.1452 3.29613 96.1452 3.0168 96.2011 2.79334C96.2569 2.56987 96.4804 2.3464 96.7597 2.29054ZM55.363 6.64806C55.9217 5.97767 56.7597 5.64248 57.5977 5.64248C58.5474 5.58661 59.4413 6.03354 59.9999 6.7598C60.5586 6.14527 61.2849 5.75421 62.1228 5.64248C62.9608 5.4749 63.8547 5.64248 64.5809 6.14527C65.4189 6.7598 65.9217 7.82125 65.81 8.8827C65.81 10.4469 65.81 11.9553 65.81 13.5196C65.81 14.0224 65.4189 14.4134 64.9161 14.4693C64.4133 14.581 63.9106 14.19 63.7988 13.6872C63.7988 13.6313 63.7988 13.5754 63.7988 13.5754C63.7988 12.1229 63.7988 10.6145 63.7988 9.16203C63.8547 8.26818 63.2402 7.48605 62.3463 7.43019C61.8994 7.37432 61.3966 7.54192 61.0614 7.87711C60.7262 8.26818 60.5586 8.7151 60.5586 9.2179V13.352C60.5586 13.6313 60.5027 13.8548 60.3351 14.0782C59.9999 14.4693 59.3295 14.581 58.8826 14.2458C58.6033 14.0224 58.4916 13.6872 58.5474 13.352C58.5474 11.9553 58.5474 10.5028 58.5474 9.10616C58.6033 8.21231 57.9329 7.48605 57.039 7.43019C56.5362 7.43019 56.0893 7.59778 55.754 7.93298C55.4188 8.32404 55.2512 8.82684 55.3071 9.32963V13.4078C55.3071 13.6313 55.2512 13.9106 55.1395 14.0782C54.8043 14.5252 54.1339 14.6369 53.687 14.3017C53.5752 14.2458 53.5194 14.1341 53.4635 14.0782C53.3518 13.9106 53.2959 13.6872 53.2959 13.4078V6.81566C53.2959 6.53633 53.3518 6.257 53.5752 6.03354C53.8546 5.75421 54.3015 5.69834 54.6926 5.81007C55.0278 5.97767 55.3071 6.257 55.363 6.64806ZM70.2234 5.69834C71.3407 5.58661 72.458 5.86594 73.4078 6.4246C73.7988 6.70393 73.9105 7.20672 73.6871 7.59778C73.6312 7.65365 73.6312 7.70952 73.5754 7.76538C73.296 8.04471 72.8491 8.04471 72.5139 7.87711C71.7318 7.43019 70.8379 7.26259 69.9441 7.43019C69.553 7.48605 69.2178 7.87711 69.2178 8.26818C69.2178 8.60337 69.4971 8.8827 69.8323 8.99443C70.7821 9.27376 71.7876 9.10616 72.6815 9.49723C73.3519 9.72069 73.8547 10.2793 74.0782 10.9497C74.3016 11.676 74.1899 12.4023 73.9106 13.0726C73.4636 13.8548 72.7374 14.3576 71.8994 14.5252C70.5586 14.8045 69.1061 14.6369 67.877 14.0224C67.5418 13.9106 67.3184 13.6872 67.0949 13.4078C66.8714 12.9609 67.0949 12.4581 67.486 12.1788C67.8212 12.0112 68.2122 12.0671 68.4916 12.2905C69.0502 12.6816 69.6647 12.905 70.3351 12.9609C70.8938 13.0726 71.5083 12.905 71.9552 12.5699C72.2904 12.2905 72.3463 11.7319 72.0111 11.3967C71.9552 11.3408 71.8435 11.2291 71.7318 11.1732C70.8379 10.838 69.8323 11.0056 68.9385 10.6704C68.2681 10.5028 67.7094 10 67.4301 9.32963C67.0949 8.37991 67.3184 7.26259 67.9888 6.53633C68.6033 5.97767 69.3854 5.64248 70.2234 5.64248V5.69834ZM82.4022 5.69834C83.4636 5.53076 84.4692 5.86594 85.3072 6.48047C85.6983 6.70393 85.9217 7.15086 85.9217 7.59778C85.9217 8.04471 85.5307 8.43577 85.0279 8.43577C84.972 8.43577 84.972 8.43577 84.9161 8.43577C84.4133 8.37991 84.134 7.82125 83.6871 7.65365C82.9608 7.31845 82.1228 7.48605 81.6201 8.04471C81.229 8.65924 81.0614 9.38549 81.1173 10.1118C81.1173 10.838 81.1173 11.676 81.5642 12.2905C82.067 12.8492 82.905 13.0168 83.6312 12.7374C84.1899 12.5699 84.4692 11.8436 85.0837 11.8995C85.5865 11.9553 85.9217 12.3464 85.9217 12.8492C85.9217 12.905 85.9217 13.0168 85.8659 13.0726C85.5865 13.6313 85.1396 14.0224 84.6368 14.2458C83.7988 14.6369 82.8491 14.7486 81.9552 14.5252C81.0614 14.3576 80.2234 13.8548 79.7765 13.0726C79.2737 12.1788 79.1061 11.1173 79.1619 10.1118C79.1061 9.0503 79.3295 8.04471 79.8323 7.15086C80.391 6.31287 81.3407 5.75421 82.4022 5.69834ZM88.324 6.14527C89.0502 5.81007 89.8323 5.69834 90.6145 5.69834C91.4524 5.64248 92.2904 5.81007 93.0167 6.257C93.8547 6.92739 94.3016 7.93298 94.1899 8.99443C94.1899 9.94415 94.1899 10.9497 94.1899 11.8995C94.1899 12.5699 94.8603 12.9609 94.7485 13.6313C94.6927 14.19 94.1899 14.5252 93.6312 14.4693C93.5754 14.4693 93.5195 14.4693 93.4078 14.4134C93.0167 14.3017 92.8491 13.9106 92.6256 13.6313C92.0111 14.3017 91.1173 14.6369 90.2234 14.581C89.4413 14.6369 88.6033 14.4693 87.9329 14.0224C87.4301 13.6313 87.0949 13.0726 87.039 12.4023C86.8714 11.6201 87.0949 10.7821 87.6536 10.1676C88.324 9.55309 89.1619 9.27376 90.0558 9.27376C90.7821 9.27376 91.5083 9.27376 92.2346 9.27376C92.3463 8.7151 92.1787 8.15644 91.7876 7.76538C91.3966 7.48605 90.9497 7.37432 90.4469 7.37432C89.8882 7.37432 89.3295 7.48605 88.8268 7.70952C88.4916 7.87711 88.1005 7.87711 87.7653 7.65365C87.4301 7.37432 87.3742 6.92739 87.5977 6.5922C87.7653 6.36873 87.9329 6.20114 88.2122 6.14527H88.324ZM89.4413 11.0056C88.9385 11.2849 88.8268 11.9553 89.1061 12.4581C89.1619 12.5699 89.2737 12.6816 89.3854 12.7933C89.8323 13.0168 90.391 13.0726 90.8379 12.9609C91.3407 12.9609 91.8435 12.6816 92.1228 12.2347C92.2904 11.7877 92.2904 11.2849 92.2346 10.7821C91.7318 10.7821 91.229 10.7821 90.7821 10.7821C90.3351 10.7263 89.8882 10.838 89.4413 11.0056ZM50.335 5.81007C50.6702 5.69834 51.0613 5.81008 51.3406 6.03354C51.5641 6.257 51.6758 6.53633 51.6199 6.81566V13.5196C51.6199 13.9665 51.3406 14.3576 50.8937 14.4693C50.3909 14.6369 49.8322 14.3576 49.6646 13.8548C49.6646 13.7989 49.6088 13.6872 49.6088 13.6313C49.6088 11.3408 49.6088 9.10616 49.6088 6.81566C49.6646 6.36873 49.944 5.97767 50.335 5.81007ZM76.2569 5.86594C76.648 5.75421 77.0949 5.86594 77.3742 6.20114C77.5418 6.53633 77.5977 6.92739 77.5418 7.26259C77.5418 9.32963 77.5418 11.3967 77.5418 13.5196C77.5418 13.9106 77.3184 14.3017 76.9832 14.4693C76.5921 14.6369 76.1452 14.5252 75.81 14.2458C75.6424 14.0224 75.5307 13.6872 75.5865 13.4078C75.5865 11.2291 75.5865 8.99443 75.5865 6.81566C75.5865 6.36873 75.8659 5.97767 76.2569 5.86594Z" fill="#303395"/>
</g>
<defs>
<clipPath id="clip0_1_399">
<rect width="100" height="16.7598" fill="white"/>
</clipPath>
</defs>
</svg>

<svg xmlns="http://www.w3.org/2000/svg" width="376.471" height="64" fill="none" viewBox="0 0 100 17"><g clip-path="url(#a)"><path fill="#9187F6" d="M7.99.726c.336-.28.783-.28 1.118.056l2.402 2.402-1.173 1.23-1.508-1.509c-.168-.168-.392-.168-.615-.056l-.056.056c-1.788 1.732-3.52 3.52-5.307 5.307-.168.168-.224.447-.056.615l.056.056 5.028 5.028c.112.167.28.279.447.39.167.056.39 0 .503-.111l1.452-1.453 1.173 1.23L9.22 16.2a3.07 3.07 0 0 1-.503.391.869.869 0 0 1-.894-.223L.728 9.274a.877.877 0 0 1 0-1.23A907.239 907.239 0 0 1 7.991.727Z"/><path fill="#8313DD" d="M13.91.726a.877.877 0 0 1 1.23 0l7.094 7.095c.223.224.335.559.223.894-.111.224-.279.391-.446.559l-6.648 6.704c-.168.167-.336.335-.56.447a.87.87 0 0 1-.893-.224l-2.402-2.346-1.173-1.173-3.576-3.576c-.335-.335-.335-.894 0-1.173l3.52-3.52 1.229-1.229c.782-.838 1.62-1.62 2.402-2.458Z"/><path fill="#303395" d="M25.754 2.737c.28-.502.95-.614 1.397-.335a.673.673 0 0 1 .279.28c.112.167.168.39.224.614l1.62 6.536c.055.28.111.56.223.838l2.067-7.43c.056-.39.28-.67.615-.894a1.036 1.036 0 0 1 1.061.112c.168.168.28.391.391.615.726 2.514 1.397 5.028 2.179 7.541a358.799 358.799 0 0 0 1.788-7.43c.056-.279.167-.558.39-.782.448-.335 1.118-.28 1.453.168.056.056.056.112.112.167.168.336.168.783 0 1.118-.838 3.184-1.732 6.369-2.57 9.553a1.26 1.26 0 0 1-.726.95c-.335.111-.67.055-1.006-.112-.223-.224-.39-.559-.503-.894-.67-2.458-1.396-4.972-2.067-7.43-.726 2.514-1.452 5.028-2.122 7.598-.112.39-.336.726-.727.893a1.083 1.083 0 0 1-1.005-.167 1.703 1.703 0 0 1-.447-.894c-.838-3.184-1.732-6.369-2.57-9.553-.224-.28-.168-.67-.056-1.062Zm15.14.503c0-.558.39-1.005.95-1.005.558 0 1.005.39 1.005.95v3.463c.447-.559 1.061-.894 1.788-1.006.67-.111 1.34 0 1.9.336a2.744 2.744 0 0 1 1.396 1.843c.111.615.167 1.23.111 1.844v3.799c0 .558-.39 1.005-.95 1.005-.558 0-1.005-.39-1.005-.95V9.107c.056-.67-.335-1.285-.894-1.62a1.865 1.865 0 0 0-1.787.28c-.336.39-.503.95-.503 1.452v4.19c0 .223-.056.447-.168.614-.335.447-.95.559-1.452.224-.112-.056-.168-.168-.224-.224-.167-.279-.167-.614-.167-.95V3.24Zm9.385-.95c.615-.223 1.285.112 1.508.727.056.112.056.223.056.39.056.671-.447 1.174-1.117 1.23h-.112c-.67 0-1.173-.559-1.173-1.23.056-.502.335-.949.838-1.116Zm25.81 0c.615-.279 1.341 0 1.62.615.056.056.056.168.056.28.112.614-.279 1.284-.95 1.396h-.167a1.148 1.148 0 0 1-1.23-1.117c-.055-.503.224-.95.671-1.173Zm20.67 0c.392-.111.783 0 1.062.224.224.223.28.559.28.838v8.492c0 .223.055.502.223.67.28.223.67.112 1.005.335.392.335.392.894.056 1.285l-.167.168c-.894.279-1.844.111-2.57-.503-.335-.503-.559-1.173-.503-1.788V3.575c0-.279 0-.558.056-.782.056-.223.28-.447.559-.502ZM55.364 6.649c.559-.67 1.397-1.006 2.235-1.006A2.84 2.84 0 0 1 60 6.76a3.444 3.444 0 0 1 2.123-1.118c.838-.167 1.732 0 2.458.503.838.615 1.34 1.676 1.229 2.738v4.637c0 .502-.391.893-.894.95-.503.111-1.005-.28-1.117-.783V9.162c.056-.894-.559-1.676-1.453-1.732a1.595 1.595 0 0 0-1.285.447 2.002 2.002 0 0 0-.502 1.34v4.135c0 .28-.056.503-.224.726-.335.391-1.005.503-1.452.168a.927.927 0 0 1-.336-.894V9.106c.056-.894-.614-1.62-1.508-1.676-.503 0-.95.168-1.285.503a1.84 1.84 0 0 0-.447 1.397v4.078c0 .223-.056.503-.168.67-.335.447-1.005.559-1.452.224-.112-.056-.168-.168-.223-.224-.112-.167-.168-.39-.168-.67V6.816c0-.28.056-.559.28-.782.279-.28.725-.336 1.117-.224.335.168.614.447.67.838Zm14.86-.95c1.118-.111 2.235.168 3.185.727.39.279.502.782.28 1.173-.057.056-.057.112-.113.167-.279.28-.726.28-1.061.112a3.748 3.748 0 0 0-2.57-.447c-.391.056-.726.447-.726.838 0 .335.28.615.614.726.95.28 1.956.112 2.85.503.67.224 1.173.782 1.396 1.453.224.726.112 1.452-.167 2.123a2.957 2.957 0 0 1-2.012 1.452c-1.34.28-2.793.112-4.022-.503-.335-.111-.559-.335-.782-.614-.224-.447 0-.95.391-1.23a.938.938 0 0 1 1.006.112 3.697 3.697 0 0 0 1.843.67c.559.113 1.173-.055 1.62-.39.335-.28.391-.838.056-1.173a1.22 1.22 0 0 0-.28-.224c-.893-.335-1.899-.167-2.792-.503-.67-.167-1.23-.67-1.509-1.34-.335-.95-.112-2.067.559-2.794.614-.558 1.396-.894 2.234-.894v.056Zm12.18 0c1.06-.167 2.066.168 2.904.782.391.224.615.67.615 1.118 0 .447-.391.838-.894.838h-.112c-.503-.056-.782-.615-1.229-.782-.726-.336-1.564-.168-2.067.39a3.36 3.36 0 0 0-.503 2.068c0 .726 0 1.564.447 2.178.503.56 1.341.727 2.067.447.559-.167.838-.893 1.453-.838.502.056.838.447.838.95 0 .056 0 .168-.056.224-.28.558-.726.95-1.23 1.173a4.043 4.043 0 0 1-2.68.28c-.895-.168-1.733-.671-2.18-1.453-.502-.894-.67-1.956-.614-2.961-.056-1.062.167-2.067.67-2.961a3.303 3.303 0 0 1 2.57-1.453Zm5.921.447c.726-.335 1.508-.447 2.29-.447.838-.056 1.676.112 2.403.559.838.67 1.285 1.676 1.173 2.737V11.9c0 .67.67 1.062.559 1.732-.056.559-.56.894-1.118.838-.056 0-.112 0-.223-.056-.391-.111-.559-.502-.782-.782a3.004 3.004 0 0 1-2.403.95c-.782.056-1.62-.112-2.29-.559a2.267 2.267 0 0 1-.894-1.62 2.544 2.544 0 0 1 .615-2.234c.67-.615 1.508-.894 2.402-.894h2.179a1.657 1.657 0 0 0-.447-1.509c-.391-.279-.838-.39-1.341-.39-.559 0-1.118.111-1.62.335a1.038 1.038 0 0 1-1.062-.056.792.792 0 0 1-.167-1.062c.167-.223.335-.39.614-.447h.112Zm1.117 4.86c-.502.28-.614.95-.335 1.453.056.112.168.224.28.335.446.224 1.005.28 1.452.168.503 0 1.006-.28 1.285-.726.167-.447.167-.95.112-1.453h-1.453c-.447-.056-.894.056-1.34.224ZM50.335 5.81c.335-.112.726 0 1.006.224.223.223.335.502.279.782v6.704c0 .447-.28.838-.726.95a.98.98 0 0 1-1.23-.615c0-.056-.055-.168-.055-.224V6.816c.056-.447.335-.838.726-1.006Zm25.922.056c.391-.112.838 0 1.117.335.168.335.224.726.168 1.062v6.257c0 .39-.224.782-.559.95-.39.167-.838.055-1.173-.224-.168-.224-.28-.559-.224-.838V6.816c0-.447.28-.838.67-.95Z"/></g><defs><clipPath id="a"><path fill="#fff" d="M0 0h100v16.76H0z"/></clipPath></defs></svg>
